X:1
T:Title
%%score { ( 1 4 ) | ( 2 3 ) }
L:1/8
Q:1/4=100
M:6/8
K:F
V:1 treble nm="Grand Piano"
V:4 treble 
V:2 bass 
V:3 bass 
V:1
 A2 A AGF | c2 c c2 A | [EG]2 [EG] [EG][DF][EG] | A6 | A2 A AGF | c2 c c2 A | %6
w: D.~E.~Dortch * * * *||||||
 z [^FA][DGB] [C=FA]2 [B,EG] | [A,F]6 | [Fc]3 [FA]3 | [Fd]3 c3 | A2 A AGF | [EG]6 | A2 A AGF | %13
w: |||||||
 c2 c c2 A | z [^FA][DGB] [C=FA]2 [B,EG] |[M:7/4] [A,F]6 z2 z2 z4 |] %16
w: |||
V:2
 z3 .C3 | [F,A,F]2 [F,A,F] [F,A,F]2 [F,CF] | [C,C]2 [C,C] [C,C]2 [C,C] | [F,CF]6 | z3 .C3 | %5
 [F,A,F]2 [F,A,F] [F,A,F]2 [F,CF] | B,,A,,G,, C,2 C, | F,6 | [F,A,]2 F, F,2 F, | z3 F3 | z3 .C3 | %11
 [C,C]6 | z3 .C3 | [F,A,F]2 [F,A,F] [F,A,F]2 [F,CF] | B,,A,,G,, C,2 C, |[M:7/4] F,6 z2 z2 z4 |] %16
V:3
 [F,CF]2 [F,CF] [F,F]-[F,B,F][F,A,] | x6 | x6 | x6 | [F,CF]2 [F,CF] [F,F]-[F,B,F][F,A,] | x6 | x6 | %7
 x6 | x6 | [B,,B,]2 D, [F,A,]2 F, | [F,CF]2 [F,CF] [F,F]-[F,B,F][F,A,] | x6 | %12
 [F,CF]2 [F,CF] [F,F]-[F,B,F][F,A,] | x6 | x6 |[M:7/4] x14 |] %16
V:4
 x6 | x6 | x6 | x6 | x6 | x6 | .[DG]3 z3 | x6 | z2 A, C2 C | z2 B, z2 A, | x6 | x6 | x6 | x6 | %14
 .[DG]3 z3 |[M:7/4] x14 |] %16

